X: 191
M: 6/8
L: 1/8
K: D
fdf edc | (B/c/d)B AFD | EFG ABc | def ecA |\
fdf ecA | (B/c/d)B AFD | EFG Agf | edc d2 :|
|: F/G/ |\
fdf ecA | (B/c/d)B AFD | EFG Agf | edc d2 :|

